portfolio/static/icons/dribbble-black-icon.svg

<?xml version="1.0" encoding="utf-8"?><!-- Uploaded to: SVG Repo, www.svgrepo.com, Generator: SVG Repo Mixer Tools -->
<svg width="24px" height="24px" viewBox="0 0 24 24" fill="none" xmlns="http://www.w3.org/2000/svg">
<path fill-rule="evenodd" clip-rule="evenodd" d="M12 23C18.0751 23 23 18.0751 23 12C23 5.92487 18.0751 1 12 1C5.92487 1 1 5.92487 1 12C1 18.0751 5.92487 23 12 23ZM5.14386 17.8201C3.81099 16.2515 3.00683 14.2197 3.00683 12L3.00683 11.9978C6.61307 11.9618 9.57567 11.4838 12.2422 10.5779C12.4668 11.0605 12.6847 11.5534 12.8956 12.0564C12.5555 12.1691 12.221 12.2949 11.8918 12.4335C9.24177 13.5489 7.00538 15.4612 5.14386 17.8201ZM6.60614 19.1967C8.10884 20.3248 9.97636 20.9932 12 20.9932C13.2188 20.9932 14.3809 20.7507 15.4409 20.3114C14.9668 18.0368 14.352 15.907 13.6265 13.9217C13.3003 14.0264 12.9807 14.1451 12.6677 14.2768C10.356 15.2499 8.33843 16.9649 6.60614 19.1967ZM15.5924 13.4765C16.2479 15.3019 16.8129 17.2399 17.267 19.2902C19.048 18.0013 20.338 16.0757 20.8032 13.8473C18.9143 13.3589 17.1821 13.2604 15.5924 13.4765ZM14.8575 11.5662C16.754 11.2412 18.7996 11.3067 20.9917 11.8332C20.9578 9.97415 20.3599 8.25291 19.3619 6.8334C17.6358 8.0531 15.9276 9.06168 14.1111 9.85398C14.3687 10.4121 14.6177 10.9829 14.8575 11.5662ZM11.3457 8.76846C8.99734 9.53429 6.39047 9.94463 3.2312 9.9948C3.85725 7.24565 5.74294 4.97565 8.24906 3.82401C9.34941 5.31262 10.3933 6.96064 11.3457 8.76846ZM13.2302 8.05623C14.8876 7.34152 16.4466 6.43089 18.0282 5.32624C16.4333 3.88469 14.3192 3.00683 12 3.00683C11.4014 3.00683 10.8165 3.06531 10.2506 3.17688C11.3103 4.66337 12.3129 6.28992 13.2302 8.05623Z" fill="#0F0F0F"/>
</svg>

<svg width="24" height="24" xmlns="http://www.w3.org/2000/svg"  fill="currentColor">
  <path fill-rule="evenodd" clip-rule="evenodd" d="M12 23c6.075 0 11-4.925 11-11S18.075 1 12 1 1 5.925 1 12s4.925 11 11 11Zm-6.856-5.18A8.957 8.957 0 0 1 3.007 12v-.002c3.606-.036 6.569-.514 9.235-1.42.225.482.443.975.654 1.478-.34.113-.675.239-1.004.378-2.65 1.115-4.887 3.027-6.748 5.386Zm1.462 1.377A8.953 8.953 0 0 0 12 20.993c1.219 0 2.38-.242 3.44-.682a45.87 45.87 0 0 0-1.813-6.39c-.327.105-.646.224-.96.356-2.311.973-4.329 2.688-6.06 4.92Zm8.986-5.72a47.73 47.73 0 0 1 1.675 5.813 8.997 8.997 0 0 0 3.536-5.443c-1.889-.488-3.62-.587-5.21-.37Zm-.735-1.91c1.897-.326 3.943-.26 6.135.266a8.95 8.95 0 0 0-1.63-5c-1.726 1.22-3.434 2.229-5.25 3.021.257.558.506 1.129.745 1.712Zm-3.511-2.799C8.997 9.534 6.39 9.945 3.23 9.995a9.011 9.011 0 0 1 5.02-6.171 38.515 38.515 0 0 1 3.097 4.944Zm1.884-.712c1.658-.714 3.217-1.625 4.798-2.73A8.96 8.96 0 0 0 12 3.006c-.599 0-1.184.06-1.75.17a40.782 40.782 0 0 1 2.98 4.88Z" />
</svg>
